X:65
T:Plough and the Stars, The
M:C|
R:Reel
Z:Bruce's 250
K:G
GEDE GABd|gabg aged|~B3d e2de|gedB c2BA|\
GEDE GABd|gabg aged|Bdd2 eBdB|1 AGAB G2BA:|2 AGAB GABd|:\
g3b a3b|gabg aged|Bdd2 edd2|gedB c2BA|\
GEDE GABd|gabg aged|Bdd2 eBdB|1 AGAB G2Bd:|2 AGAB GABA||
